src/assets/whyussvg1.svg

"<svg xmlns=\"http://www.w3.org/2000/svg\" viewBox=\"0 0 48 48\" fill=\"none\"> <path d=\"M21.5969 31.347C21.9628 30.9804 21.9628 30.3868 21.5969 30.0202C21.2303 29.6547 20.6371 29.6547 20.2705 30.0202C19.9047 30.3868 19.9047 30.9804 20.2705 31.347C20.6371 31.7125 21.2303 31.7125 21.5969 31.347Z\" fill=\"#CCCCCC\"></path> <path d=\"M21.9382 9.28125V11.1562C21.9382 14.2639 24.4556 16.7812 27.5632 16.7812C30.665 16.7812 33.1886 14.2581 33.1886 11.1562V9.28125C33.7064 9.28125 34.1261 8.86157 34.1261 8.34375C34.1261 7.82593 33.7064 7.40625 33.1886 7.40625H31.3136C30.7958 7.40625 30.3761 7.82593 30.3761 8.34375C30.3761 8.86157 30.7958 9.28125 31.3136 9.28125V11.1562C31.3136 13.2239 29.6312 14.9062 27.5632 14.9062C25.4923 14.9062 23.8132 13.2279 23.8132 11.1562V9.28125C24.3311 9.28125 24.7507 8.86157 24.7507 8.34375C24.7507 7.82593 24.3311 7.40625 23.8132 7.40625H21.9382C21.4204 7.40625 21.0007 7.82593 21.0007 8.34375C21.0007 8.86157 21.4204 9.28125 21.9382 9.28125Z\" fill=\"#CCCCCC\"></path> <path d=\"M10.8955 46.0258C11.0786 46.2085 11.3181 46.2997 11.558 46.2997C11.7979 46.2997 12.0377 46.2081 12.2208 46.0254L15.0996 43.1466C16.0375 42.2095 16.489 40.9259 16.3586 39.6288L17.391 38.632C18.2102 37.8424 19.2872 37.4073 20.4232 37.4073H32.7667C34.9779 37.4073 37.0679 36.5581 38.6514 35.016C38.6748 34.9933 38.6968 34.9695 38.7177 34.9442L47.1163 24.8588C48.4508 23.2797 48.2512 20.9088 46.6707 19.5729C45.1003 18.2494 42.7471 18.4398 41.4086 19.9926L40.5015 20.9308V2.625C40.5015 2.10718 40.0814 1.6875 39.564 1.6875H15.4691C14.9517 1.6875 14.5316 2.10718 14.5316 2.625V23.6298C10.901 24.3918 8.02149 26.6455 6.47058 29.9399C5.24744 29.8766 4.05469 30.3263 3.16956 31.2125L0.276124 34.0917C0.0996104 34.2675 0.000367221 34.5062 1.00991e-06 34.7552C-0.000365201 35.0046 0.098878 35.2434 0.275025 35.4196L10.8955 46.0258ZM38.6265 3.5625V22.8695L35.9132 25.6747C35.2148 24.8167 34.1506 24.282 33.0011 24.282H22.1312C22.0712 24.282 22.006 24.2681 21.9404 24.2417C20.48 23.6462 18.9335 23.3445 17.3445 23.3445C17.0306 23.3445 16.7179 23.3558 16.407 23.3763V3.5625H38.6265ZM15.6035 25.3429C17.5001 25.0686 19.3967 25.2297 21.2362 25.9794C21.5284 26.0973 21.8298 26.1573 22.1312 26.1573H33.0011C34.0177 26.1573 34.8761 26.9865 34.8761 28.0323C34.8761 29.0662 34.0349 29.9073 33.0011 29.9073H24.8445C24.327 29.9073 23.907 30.327 23.907 30.8448C23.907 31.3627 24.327 31.7823 24.8445 31.7823H33.0011C35.0691 31.7823 36.7511 30.1 36.7511 28.0323C36.7511 27.8668 36.739 27.7024 36.7178 27.5402C36.9133 27.3398 42.5801 21.479 42.7764 21.2758C42.7906 21.2607 42.8049 21.2454 42.8181 21.2296C43.4861 20.4408 44.6722 20.3412 45.4614 21.0062C46.2513 21.6738 46.3513 22.8593 45.6797 23.6539L37.3092 33.7057C36.082 34.8842 34.4707 35.5323 32.7667 35.5323H20.4232C18.7991 35.5323 17.2603 36.1534 16.0891 37.2825L15.6757 37.6816C15.5101 37.4271 15.3175 37.1895 15.1 36.9723L9.34168 31.214C9.03406 30.9064 8.68506 30.6508 8.3075 30.449C9.73975 27.624 12.2981 25.8234 15.6035 25.3429ZM4.49414 32.5397C5.47925 31.5531 7.05359 31.5773 8.01563 32.54L13.7747 38.2987C14.74 39.2622 14.7572 40.8384 13.7743 41.8202L11.5573 44.0369L2.26538 34.7574L4.49414 32.5397Z\" fill=\"#CCCCCC\"></path> </svg>"

<svg xmlns="http://www.w3.org/2000/svg" fill="none" viewBox="0 0 48 48"><path fill="#CCC" d="M21.597 31.347a.94.94 0 0 0-1.327-1.327.94.94 0 0 0 1.327 1.327ZM21.938 9.281v1.875a5.624 5.624 0 0 0 5.625 5.625 5.631 5.631 0 0 0 5.626-5.625V9.281a.937.937 0 1 0 0-1.875h-1.875a.937.937 0 1 0 0 1.875v1.875a3.75 3.75 0 1 1-7.5 0V9.281a.937.937 0 1 0 0-1.875h-1.876a.937.937 0 1 0 0 1.875Z"/><path fill="#CCC" d="M10.896 46.026a.935.935 0 0 0 1.325 0l2.879-2.88a4.34 4.34 0 0 0 1.259-3.517l1.032-.997a4.35 4.35 0 0 1 3.032-1.225h12.344a8.39 8.39 0 0 0 5.884-2.391.885.885 0 0 0 .067-.072l8.398-10.085a3.755 3.755 0 0 0-.445-5.286 3.76 3.76 0 0 0-5.262.42l-.907.938V2.625a.938.938 0 0 0-.938-.938H15.469a.938.938 0 0 0-.937.938V23.63c-3.631.762-6.51 3.015-8.061 6.31a4.33 4.33 0 0 0-3.301 1.272l-2.894 2.88a.938.938 0 0 0-.001 1.328l10.62 10.606Zm27.73-42.464V22.87l-2.713 2.806a3.767 3.767 0 0 0-2.912-1.393h-10.87a.518.518 0 0 1-.19-.04 12.114 12.114 0 0 0-4.596-.898c-.314 0-.627.012-.938.032V3.562h22.22Zm-23.022 21.78c1.896-.273 3.793-.112 5.632.637.292.118.594.178.895.178h10.87a1.88 1.88 0 0 1 1.875 1.875 1.877 1.877 0 0 1-1.875 1.875h-8.156a.938.938 0 0 0 0 1.875H33a3.754 3.754 0 0 0 3.717-4.242 18458.815 18458.815 0 0 0 6.1-6.31 1.881 1.881 0 0 1 2.643-.224c.79.668.89 1.853.219 2.648l-8.37 10.052a6.523 6.523 0 0 1-4.543 1.826H20.423a6.214 6.214 0 0 0-4.334 1.75l-.413.4a4.372 4.372 0 0 0-.576-.71l-5.758-5.758a4.379 4.379 0 0 0-1.035-.765c1.433-2.825 3.991-4.626 7.296-5.106ZM4.494 32.54a2.486 2.486 0 0 1 3.522 0l5.759 5.759c.965.963.982 2.54 0 3.521l-2.218 2.217-9.292-9.28 2.23-2.217Z"/></svg>
